X:1
T:Watermelon Man
C:1962 - Herbie Hancock
Z:Copyright © www.realbook.site
L:1/8
M:4/4
I:linebreak $
K:F
V:1 treble nm=" " snm=" "
V:1
|:"F7" _e8- | e2 FF c d2 F- | F8 | z8 |$"Bb7" f8- | f2 FF c d2 F- |"F7" F8 | z8 ||$ %8
"C7" z2 cc g2 a2 |"Bb7" _agfd f2 g2 |"C7" z2 cc g2 =a2 |"Bb7" _agfd c2 d2 |$"C7" z2 cc g2 _a2 | %13
"Bb7" f2 FF c d2 F- |"F7" F8 | z8 |] %16

